X:106
T:Reels simple chords 207
M:3/4
L:1/8
K:G
ge [dG,B,D]B ge | dB AG [BA,CE]A | AB A2 de | [d2D,2F,2A,2]>e2 dB | AG [BG,B,D]G GG |
G2 ge [dG,B,D]B | ge dB AG | [BA,CE]A AB A2 | ED [CC,E,G,]E AB |
A2>B2 [A2D,2F,2A,2C2] | G2 G2 ge | [dG,B,D]B ge dB | AG [BA,CE]A AB |
A2 de2< [d2D,2F,2A,2] |e dB AG | [BG,B,D]G GG G2 | ge [dG,B,D]B ge |
dB AG [BA,CE]A | AB A2 ED | [CC,E,G,]E AB2< A2 |B [A2D,2F,2A,2C2] G2 |
G2 ga [b4E,4G,4B,4] | ba gb | [a2C,2E,2G,2] g2 g4 | [e2C,2E,2G,2] ge |
de ga [b2A,2C2E2] | a2 a2 ga | [b4E,4G,4B,4] ba | gb [a2C,2E,2G,2] g2 |
g4 [e2C,2E,2G,2] | ge dB Ad | [B2D2F2A,2] G2 G2 | ga [b4E,4G,4B,4] |
ba gb [a2C,2E,2G,2] | g2 g4 | [e2C,2E,2G,2] ge de | ga [b2A,2C2E2] a2 |
a2 ga [b4E,4G,4B,4] | ba gb | [a2C,2E,2G,2] g2 g4 | [e2C,2E,2G,2] ge |
dB Ad [B2D2F2A,2] | G2 G2 |


